resources/icons/system-bodies.svg

<?xml version="1.0" encoding="UTF-8" standalone="no"?>
<svg
   viewBox="0 0 1000 1000"
   preserveAspectRatio="xMidYMid meet"
   version="1.1"
   id="svg4"
   sodipodi:docname="system-bodies.svg"
   inkscape:version="1.1.1 (3bf5ae0d25, 2021-09-20)"
   xmlns:inkscape="http://www.inkscape.org/namespaces/inkscape"
   xmlns:sodipodi="http://sodipodi.sourceforge.net/DTD/sodipodi-0.dtd"
   xmlns="http://www.w3.org/2000/svg"
   xmlns:svg="http://www.w3.org/2000/svg">
  <defs
     id="defs8" />
  <sodipodi:namedview
     id="namedview6"
     pagecolor="#ffffff"
     bordercolor="#666666"
     borderopacity="1.0"
     inkscape:pageshadow="2"
     inkscape:pageopacity="0.0"
     inkscape:pagecheckerboard="0"
     showgrid="false"
     inkscape:zoom="0.873"
     inkscape:cx="499.42726"
     inkscape:cy="501.14548"
     inkscape:window-width="1510"
     inkscape:window-height="1095"
     inkscape:window-x="1143"
     inkscape:window-y="383"
     inkscape:window-maximized="0"
     inkscape:current-layer="svg4" />
  <path
     id="path2035"
     style="stroke-width:1.05728"
     d="M 262.1543,46.794922 C 123.04241,41.648542 6.0983486,150.25038 0.953125,289.36328 -3.9670304,427.02482 102.53692,543.13994 240.10938,550.10156 v 59.75391 C 148.25876,617.89655 76.601205,692.79202 72.615234,784.91797 68.863756,886.30548 148.00471,971.53697 249.38086,975.28711 350.7558,979.0364 435.97625,899.88631 439.72656,798.5 443.26329,701.56945 370.84075,618.59167 274.33203,609 V 549.72266 C 396.27963,539.23305 493.06551,442.65064 503.8125,320.72461 h 53.48242 c 7.98171,31.63455 35.81665,54.2561 68.41797,55.60351 34.7111,1.23445 65.57279,-21.93114 74.07617,-55.60351 h 42.13282 c 7.94738,59.36135 55.94713,105.1849 115.4746,110.55078 v 45.22266 c -3.966,1.14934 -7.74734,2.65042 -11.37304,4.42187 a 80.183273,76.17411 0 0 0 -52.20899,71.18164 80.183273,76.17411 0 0 0 63.58203,74.32617 v 50.98243 a 56.128292,53.264603 0 0 0 -40.38086,51.12109 56.128292,53.264603 0 0 0 56.12696,53.26563 56.128292,53.264603 0 0 0 56.1289,-53.26563 56.128292,53.264603 0 0 0 -36.36523,-49.70898 v -52.8711 a 80.183273,76.17411 0 0 0 61.27539,-73.84961 80.183273,76.17411 0 0 0 -27.87695,-57.70312 c -9.0712,-8.78826 -20.42872,-15.31086 -33.39844,-18.29883 v -46.69727 c 58.06212,-11.53122 100.66416,-61.34597 103.05273,-120.5 2.61584,-70.71203 -52.58082,-130.15587 -123.28515,-132.77148 -65.29206,-1.87907 -121.54289,45.67118 -130.56641,110.37109 h -42.30273 c -7.29494,-32.44523 -35.41858,-55.98535 -68.64453,-57.45703 -35.13304,-0.87386 -65.99521,23.17783 -73.72657,57.45703 h -54.0332 C 497.12276,156.21329 392.4796,52.237712 262.1543,46.794922 Z" />
</svg>

<?xml version="1.0" encoding="UTF-8" standalone="no"?>
<svg
   viewBox="0 0 1000 1000"
   preserveAspectRatio="xMidYMid meet"
   version="1.1"
   id="svg4"
   sodipodi:docname="system-bodies.svg"
   inkscape:version="1.1.1 (3bf5ae0d25, 2021-09-20)"
   xmlns:inkscape="http://www.inkscape.org/namespaces/inkscape"
   xmlns:sodipodi="http://sodipodi.sourceforge.net/DTD/sodipodi-0.dtd"
   xmlns="http://www.w3.org/2000/svg"
   xmlns:svg="http://www.w3.org/2000/svg">
  <defs
     id="defs8" />
  <sodipodi:namedview
     id="namedview6"
     pagecolor="#ffffff"
     bordercolor="#666666"
     borderopacity="1.0"
     inkscape:pageshadow="2"
     inkscape:pageopacity="0.0"
     inkscape:pagecheckerboard="0"
     showgrid="false"
     inkscape:zoom="0.873"
     inkscape:cx="499.42726"
     inkscape:cy="500.57274"
     inkscape:window-width="3840"
     inkscape:window-height="2096"
     inkscape:window-x="-8"
     inkscape:window-y="-8"
     inkscape:window-maximized="1"
     inkscape:current-layer="svg4" />
  <path
     id="path1012"
     style="stroke-width:1.05728"
     d="M 262.1543 46.794922 A 252.05712 252.05535 86.982818 0 0 0.953125 289.36328 A 252.05712 252.05535 86.982818 0 0 240.10938 550.10156 L 240.10938 609.85547 A 183.68198 183.70264 1.8177606 0 0 72.615234 784.91797 A 183.68198 183.70264 1.8177606 0 0 249.38086 975.28711 A 183.68198 183.70264 1.8177606 0 0 439.72656 798.5 A 183.68198 183.70264 1.8177606 0 0 274.33203 609 L 274.33203 549.72266 A 252.05712 252.05535 86.982818 0 0 503.8125 320.72461 L 557.29492 320.72461 A 73.700077 73.692178 2.6641014 0 0 625.71289 376.32812 A 73.700077 73.692178 2.6641014 0 0 699.78906 320.72461 L 741.92188 320.72461 A 128.10896 128.12291 1.5843989 0 0 858.68359 431.43555 L 858.68359 476.03711 A 71.875553 71.27787 89.965878 0 0 805.82812 542.65039 A 71.875553 71.27787 89.965878 0 0 858.68359 614.01367 L 858.68359 675.24414 A 117.29155 115.48276 89.981652 0 0 762.1875 785.90039 A 117.29155 115.48276 89.981652 0 0 873.32422 907.44922 A 117.29155 115.48276 89.981652 0 0 992.99609 794.57422 A 117.29155 115.48276 89.981652 0 0 892.90625 674.92578 L 892.90625 615.31055 A 71.875553 71.27787 89.965878 0 0 948.28711 547.96484 A 71.875553 71.27787 89.965878 0 0 892.90625 476.09961 L 892.90625 429.40234 A 128.10896 128.12291 1.5843989 0 0 995.95898 308.90234 A 128.10896 128.12291 1.5843989 0 0 872.67383 176.13086 A 128.10896 128.12291 1.5843989 0 0 742.10742 286.50195 L 699.80469 286.50195 A 73.700077 73.692178 2.6641014 0 0 631.16016 229.04492 A 73.700077 73.692178 2.6641014 0 0 557.43359 286.50195 L 503.40039 286.50195 A 252.05712 252.05535 86.982818 0 0 262.1543 46.794922 z " />
</svg>
